client/public/img/game/shared/projectiles/proj_seed_infected.svg

<?xml version="1.0" encoding="UTF-8" standalone="no"?>
<!-- Created with Inkscape (http://www.inkscape.org/) -->

<svg
   width="34.561123"
   height="29.003799"
   viewBox="0 0 9.1442962 7.6739221"
   version="1.1"
   id="svg5"
   inkscape:version="1.3.2 (091e20e, 2023-11-25, custom)"
   sodipodi:docname="proj_seed_plumpkin_launcher.svg"
   xmlns:inkscape="http://www.inkscape.org/namespaces/inkscape"
   xmlns:sodipodi="http://sodipodi.sourceforge.net/DTD/sodipodi-0.dtd"
   xmlns="http://www.w3.org/2000/svg"
   xmlns:svg="http://www.w3.org/2000/svg">
  <sodipodi:namedview
     id="namedview7"
     pagecolor="#505050"
     bordercolor="#ffffff"
     borderopacity="1"
     inkscape:pageshadow="0"
     inkscape:pageopacity="0"
     inkscape:pagecheckerboard="1"
     inkscape:document-units="px"
     showgrid="false"
     units="px"
     inkscape:zoom="17.557358"
     inkscape:cx="13.356224"
     inkscape:cy="16.887507"
     inkscape:window-width="1920"
     inkscape:window-height="1001"
     inkscape:window-x="-9"
     inkscape:window-y="-9"
     inkscape:window-maximized="1"
     inkscape:current-layer="layer1"
     inkscape:showpageshadow="2"
     inkscape:deskcolor="#d1d1d1" />
  <defs
     id="defs2" />
  <g
     inkscape:label="Layer 1"
     inkscape:groupmode="layer"
     id="layer1"
     transform="translate(-127.98952,2.446333)">
    <path
       id="path1"
       style="fill:#8a4c70;fill-opacity:0.701961;stroke:none;stroke-width:0.153194;stroke-linecap:round;stroke-linejoin:round"
       d="m 132.85162,-2.4132886 a 2.0512519,2.0512519 0 0 0 -2.05103,2.05103765 2.0512519,2.0512519 0 0 0 -2.05104,2.05155425 2.0512519,2.0512519 0 0 0 0.73949,1.5735473 2.0512519,2.0512519 0 0 0 2.01486,1.6887858 2.0512519,2.0512519 0 0 0 1.99936,-1.6164388 2.0512519,2.0512519 0 0 0 0.0744,-0.05581 2.0512519,2.0512519 0 0 0 1.87947,-2.039152 2.0512519,2.0512519 0 0 0 -0.56741,-1.41593415 2.0512519,2.0512519 0 0 0 0.0134,-0.1865519 2.0512519,2.0512519 0 0 0 -2.05156,-2.05103765 z" />
    <path
       id="path11-8-2-1-9"
       style="fill:#5c324a;fill-opacity:1;fill-rule:evenodd;stroke:#331c29;stroke-width:0.434038;stroke-linejoin:round;stroke-opacity:1"
       d="m 131.19408,0.41655833 c 0.57522,-0.33210949 2.9293,-0.80389592 3.15338,-0.41575859381 C 134.56456,0.37682804 132.98594,2.1917357 132.41072,2.5238364 130.63273,3.5503561 129.41609,1.4430757 131.19408,0.41655833 Z"
       sodipodi:nodetypes="ssss" />
    <path
       id="path4"
       style="fill:#8a4c70;fill-opacity:0.7019608;stroke:none;stroke-width:0.153194;stroke-linecap:round;stroke-linejoin:round"
       d="M 129.97286 -1.6515495 A 0.51148105 0.51148105 0 0 0 129.50984 -1.3564771 A 0.29080325 0.29080325 0 0 0 129.46902 -1.3595777 A 0.29080325 0.29080325 0 0 0 129.17859 -1.0686394 A 0.29080325 0.29080325 0 0 0 129.46902 -0.77770107 A 0.29080325 0.29080325 0 0 0 129.58787 -0.80353928 A 0.51148105 0.51148105 0 0 0 129.97286 -0.62887295 A 0.51148105 0.51148105 0 0 0 130.48446 -1.1399528 A 0.51148105 0.51148105 0 0 0 129.97286 -1.6515495 z " />
    <path
       id="circle5"
       style="fill:#8a4c70;fill-opacity:0.7019608;stroke:none;stroke-width:0.202663;stroke-linecap:round;stroke-linejoin:round"
       d="m 134.32583,3.5165819 a 0.67664677,0.67664677 0 0 0 -0.67644,0.6764445 0.67664677,0.67664677 0 0 0 0.67644,0.6769612 0.67664677,0.67664677 0 0 0 0.0274,-0.00207 0.41557834,0.41557834 0 0 0 0.41135,0.359668 0.41557834,0.41557834 0 0 0 0.41547,-0.4154785 0.41557834,0.41557834 0 0 0 -0.22686,-0.3700032 0.67664677,0.67664677 0 0 0 0.0496,-0.2490804 0.67664677,0.67664677 0 0 0 -0.67696,-0.6764445 z" />
    <circle
       style="fill:#8a4c70;fill-opacity:0.7019608;stroke:none;stroke-width:0.202663;stroke-linecap:round;stroke-linejoin:round"
       id="circle7"
       cx="136.45717"
       cy="1.8381833"
       r="0.67664677" />
    <path
       id="circle8"
       style="fill:#8a4c70;fill-opacity:0.7019608;stroke:none;stroke-width:0.132449;stroke-linecap:round;stroke-linejoin:round"
       d="m 135.80895,-0.90278641 a 0.49581093,0.49581093 0 0 0 -0.49558,0.49557697 0.49581093,0.49581093 0 0 0 0.49558,0.49557696 0.49581093,0.49581093 0 0 0 0.23409,-0.05994466 0.44221798,0.44221798 0 0 0 0.33176,0.14986165 0.44221798,0.44221798 0 0 0 0.44235,-0.44235024 0.44221798,0.44221798 0 0 0 -0.44235,-0.44235024 0.44221798,0.44221798 0 0 0 -0.15089,0.0279053 0.49581093,0.49581093 0 0 0 -0.41496,-0.22427574 z" />
    <circle
       style="fill:#8a4c70;fill-opacity:0.7019608;stroke:none;stroke-width:0.200407;stroke-linecap:round;stroke-linejoin:round"
       id="circle10"
       cx="128.65863"
       cy="3.9102607"
       r="0.66911197" />
    <circle
       style="fill:#8a4c70;fill-opacity:0.7019608;stroke:none;stroke-width:0.12447;stroke-linecap:round;stroke-linejoin:round"
       id="circle11"
       cx="135.95494"
       cy="3.8930161"
       r="0.41557834" />
    <circle
       style="fill:#8a4c70;fill-opacity:0.7019608;stroke:none;stroke-width:0.08298;stroke-linecap:round;stroke-linejoin:round"
       id="circle12"
       cx="128.99667"
       cy="-0.33735827"
       r="0.27705222" />
  </g>
</svg>

<svg xmlns="http://www.w3.org/2000/svg" width="34.561" height="29.004" viewBox="0 0 9.144 7.674"><g transform="translate(-127.99 2.446)"><path d="M132.852-2.413a2.05 2.05 0 0 0-2.051 2.05 2.05 2.05 0 0 0-2.051 2.052 2.05 2.05 0 0 0 .739 1.574 2.05 2.05 0 0 0 2.015 1.689 2.05 2.05 0 0 0 2-1.617l.074-.056a2.05 2.05 0 0 0 1.88-2.039 2.05 2.05 0 0 0-.568-1.416 2 2 0 0 0 .013-.186 2.05 2.05 0 0 0-2.051-2.051" style="fill:#8a4c70;fill-opacity:.701961;stroke:none;stroke-width:.153194;stroke-linecap:round;stroke-linejoin:round"/><path d="M131.194.417c.575-.333 2.93-.804 3.153-.416.218.376-1.361 2.19-1.936 2.523-1.778 1.026-2.995-1.08-1.217-2.107Z" style="fill:#5c324a;fill-opacity:1;fill-rule:evenodd;stroke:#331c29;stroke-width:.434038;stroke-linejoin:round;stroke-opacity:1"/><path d="M129.973-1.652a.51.51 0 0 0-.463.296l-.041-.004a.29.29 0 0 0-.29.291.29.29 0 0 0 .29.291.3.3 0 0 0 .119-.026.51.51 0 0 0 .385.175.51.51 0 0 0 .511-.511.51.51 0 0 0-.511-.512" style="fill:#8a4c70;fill-opacity:.7019608;stroke:none;stroke-width:.153194;stroke-linecap:round;stroke-linejoin:round"/><path d="M134.326 3.517a.677.677 0 0 0-.677.676.677.677 0 0 0 .677.677l.027-.002a.416.416 0 0 0 .412.36.416.416 0 0 0 .415-.416.42.42 0 0 0-.227-.37.7.7 0 0 0 .05-.249.677.677 0 0 0-.677-.676" style="fill:#8a4c70;fill-opacity:.7019608;stroke:none;stroke-width:.202663;stroke-linecap:round;stroke-linejoin:round"/><circle cx="136.457" cy="1.838" r=".677" style="fill:#8a4c70;fill-opacity:.7019608;stroke:none;stroke-width:.202663;stroke-linecap:round;stroke-linejoin:round"/><path d="M135.809-.903a.496.496 0 0 0-.496.496.496.496 0 0 0 .496.495.5.5 0 0 0 .234-.06.44.44 0 0 0 .332.15.44.44 0 0 0 .442-.442.44.44 0 0 0-.442-.442.4.4 0 0 0-.151.027.5.5 0 0 0-.415-.224" style="fill:#8a4c70;fill-opacity:.7019608;stroke:none;stroke-width:.132449;stroke-linecap:round;stroke-linejoin:round"/><circle cx="128.659" cy="3.91" r=".669" style="fill:#8a4c70;fill-opacity:.7019608;stroke:none;stroke-width:.200407;stroke-linecap:round;stroke-linejoin:round"/><circle cx="135.955" cy="3.893" r=".416" style="fill:#8a4c70;fill-opacity:.7019608;stroke:none;stroke-width:.12447;stroke-linecap:round;stroke-linejoin:round"/><circle cx="128.997" cy="-.337" r=".277" style="fill:#8a4c70;fill-opacity:.7019608;stroke:none;stroke-width:.08298;stroke-linecap:round;stroke-linejoin:round"/></g></svg>
